svgs/light/syringe.svg

<svg xmlns="http://www.w3.org/2000/svg" viewBox="0 0 512 512"><!-- Font Awesome Pro 6.0.0-alpha2 by @fontawesome - https://fontawesome.com License - https://fontawesome.com/license (Commercial License) --><path d="M507.312 84.688L427.312 4.688C421.062 -1.562 410.937 -1.562 404.688 4.688S398.438 21.063 404.688 27.312L433.375 56L384 105.375L315.312 36.688C309.062 30.438 298.937 30.438 292.688 36.688S286.438 53.063 292.688 59.312L452.687 219.312C455.812 222.438 459.906 224 464 224S472.187 222.438 475.312 219.312C481.562 213.062 481.562 202.937 475.312 196.688L406.625 128L456 78.625L484.687 107.312C487.812 110.438 491.906 112 496 112S504.187 110.438 507.312 107.312C513.562 101.062 513.562 90.938 507.312 84.688ZM388.688 228.688L199.438 417.938C190.359 427 178.312 432 165.484 432H80V346.5C80 333.875 85.125 321.5 94.062 312.562L128 278.625L180.688 331.312C183.812 334.438 187.906 336 192 336S200.188 334.438 203.312 331.312C209.562 325.062 209.562 314.937 203.312 308.688L150.625 256L192 214.625L244.688 267.312C247.812 270.438 251.906 272 256 272S264.188 270.438 267.312 267.312C273.562 261.062 273.562 250.937 267.312 244.688L214.625 192L283.312 123.312C289.562 117.062 289.562 106.937 283.312 100.688S266.937 94.438 260.688 100.688L71.438 289.938C56.328 305.062 48 325.125 48 346.5V441.375L4.688 484.688C-1.563 490.938 -1.563 501.063 4.688 507.312C7.812 510.438 11.906 512 16 512S24.187 510.438 27.312 507.312L70.625 464H165.484C186.859 464 206.953 455.688 222.062 440.562L411.312 251.312C417.562 245.062 417.562 234.937 411.312 228.688S394.938 222.438 388.688 228.688Z"/></svg>

<svg xmlns="http://www.w3.org/2000/svg" viewBox="0 0 512 512"><!--! Font Awesome Pro 6.3.0 by @fontawesome - https://fontawesome.com License - https://fontawesome.com/license (Commercial License) Copyright 2023 Fonticons, Inc. --><path d="M507.3 84.69l-80-80c-6.25-6.25-16.38-6.25-22.62 0s-6.25 16.38 0 22.62L433.4 56L384 105.4l-68.69-68.69c-6.25-6.25-16.38-6.25-22.62 0s-6.25 16.38 0 22.62l160 160C455.8 222.4 459.9 224 464 224s8.188-1.562 11.31-4.688c6.25-6.25 6.25-16.38 0-22.62L406.6 128L456 78.63l28.69 28.69C487.8 110.4 491.9 112 496 112s8.188-1.562 11.31-4.688C513.6 101.1 513.6 90.94 507.3 84.69zM388.7 228.7l-189.3 189.3C190.4 427 178.3 432 165.5 432H80v-85.5c0-12.62 5.125-25 14.06-33.94L128 278.6l52.69 52.69C183.8 334.4 187.9 336 192 336s8.188-1.562 11.31-4.688c6.25-6.25 6.25-16.38 0-22.62L150.6 256L192 214.6l52.69 52.69C247.8 270.4 251.9 272 256 272s8.188-1.562 11.31-4.688c6.25-6.25 6.25-16.38 0-22.62L214.6 192l68.69-68.69c6.25-6.25 6.25-16.38 0-22.62s-16.38-6.25-22.62 0L71.44 289.9C56.33 305.1 48 325.1 48 346.5v94.88l-43.31 43.31c-6.25 6.25-6.25 16.38 0 22.62C7.813 510.4 11.91 512 16 512s8.188-1.562 11.31-4.688L70.63 464h94.86c21.38 0 41.47-8.312 56.58-23.44l189.3-189.3c6.25-6.25 6.25-16.38 0-22.62S394.9 222.4 388.7 228.7z"/></svg>
